16x16/actions/xfce-wm-unstick.svg

<svg xmlns="http://www.w3.org/2000/svg" width="16" height="16"><defs><style id="current-color-scheme" type="text/css"></style></defs><path style="fill:currentColor;color:#323a41" d="M8 4a4 4 0 0 0-4 4 4 4 0 0 0 4 4 4 4 0 0 0 4-4 4 4 0 0 0-4-4zm0 2a2 2 0 0 1 2 2 2 2 0 0 1-2 2 2 2 0 0 1-2-2 2 2 0 0 1 2-2z"/></svg>

<svg xmlns="http://www.w3.org/2000/svg" width="16" height="16" version="1.1">
 <defs>
  <style id="current-color-scheme" type="text/css">
   .ColorScheme-Text { color:#323a41; } .ColorScheme-Highlight { color:#4285f4; } .ColorScheme-NeutralText { color:#ff9800; } .ColorScheme-PositiveText { color:#4caf50; } .ColorScheme-NegativeText { color:#f44336; }
  </style>
 </defs>
 <path style="fill:currentColor" class="ColorScheme-Text" d="M 8 4 A 4 4 0 0 0 4 8 A 4 4 0 0 0 8 12 A 4 4 0 0 0 12 8 A 4 4 0 0 0 8 4 z M 8 6 A 2 2 0 0 1 10 8 A 2 2 0 0 1 8 10 A 2 2 0 0 1 6 8 A 2 2 0 0 1 8 6 z"/>
</svg>
